X:15750
T:Soor Plooms in Galashiels
M:4/4
L:1/8
K:GMix
GA|B3c  B2ge|dBAG     A2B>A|G3A  BABd|e3d  B2d
g |edBe dBAd|BAGB     A3B  |GABc degc|B2G2 G2:|
d2|efga g2G2|g2 de/f/ e2dc |B2de f2gf|e4   d3
d |efga g3G |gbag     e2dc |Bcde fagf|e4   d2
d2|efga g3G |g2 de/f/ e2dc |BAB2 dBd2|ede2 f3
a |geg2 ede2|dBd2     BAB2 |g2fe dBgc|B2G2 G2|]
